X: 39
T: No_133_Song_to_Bring_the_Clouds.krn
N: Derived from No_133_Song_to_Bring_the_Clouds.krn
%%abc-version 2.0
%%abcx-abcm2ps-target-version 5.9.1 (29 Sep 2008)
%%abc-creator hum2abc beta
%%abcx-conversion-date 2019/03/15 08:37:56
%%humdrum-veritas 873525956
%%humdrum-veritas-data 1542217857
%%linebreak <none>
%%barnumbers 0
L: 1/4
M: 2/4
K: Gb clef=bass
[K:clef=bass][M:2/4]D3//=C// (3D/B,/B,/ | 
B,C//B,3// ||  
[M:3/4]B,B,//G,3//-G, ]|:  
[M:2/4]D3//B,// (3D/G,/G,/ | 
G,A,//G,3// ||  
[M:3/4]G,G,//F,3//-F, ||  
[M:2/4]B,2 | 
B,G, ||  
[M:3/4]B,B,B,//G,3// ||  
[M:2/4]B,G, ||  
[M:3/4]G,G,//F,3//-F, ||  
[M:2/4]B,B, | 
B,G, ||  
[M:3/4]B,B,G, | 
B,B,G, ||  
[M:2/4]B,2 | 
B,2- | 
B,2 :|]  



